images_sukapura_svg/cmd/sc_rejectalltrackedchanges.svg

<svg viewBox="0 0 16 16" xmlns="http://www.w3.org/2000/svg" xmlns:xlink="http://www.w3.org/1999/xlink"><linearGradient id="a" gradientUnits="userSpaceOnUse" x1="10" x2="11.500001" y1="4" y2="2.499999"><stop offset="0" stop-color="#fff"/><stop offset=".77967989" stop-color="#f1f1f1"/><stop offset="1" stop-color="#d5d5d5"/></linearGradient><radialGradient id="b" cx="10.994179" cy="4.42844" gradientTransform="matrix(1.4 .00000004 -.00000001 1.2 -4.39185 -2.314129)" gradientUnits="userSpaceOnUse" r="5"><stop offset="0" stop-color="#d7d7d7"/><stop offset=".49894297" stop-color="#f7f7f7"/><stop offset="1" stop-color="#fff"/></radialGradient><path d="m3 1v14h10v-9.3632812-1.9316407l-2.695312-2.7050781zm10 12.496094-1.494141 1.503906h1.494141z" fill="url(#b)"/><path d="m3 0c-.554 0-1 .446-1 1v14c0 .554.446 1 1 1h2 .234375 5.261719 1.503906 1c.554 0 1-.446 1-1v-2.511719-6.894531-1.09375-.8632812l-3.636719-3.6367188h-.863281zm0 1h6v3.5c0 .277.223.5.5.5h3.5v.6367188 7.8632812 1.5h-1-.494141-6.2812496-.2246094-2zm7 0 3 3h-3zm-5.5 3c-.277 0-.5.223-.5.5s.223.5.5.5h3c.277 0 .5-.223.5-.5s-.223-.5-.5-.5zm0 6c-.277 0-.5.223-.5.5s.223.5.5.5h2.6777344l.7578125-.732422c-.0840546-.157278-.24408-.267578-.4355469-.267578zm0 3c-.277 0-.5.223-.5.5s.223.5.5.5h.9941406 1.0058594c.277 0 .5-.223.5-.5s-.223-.5-.5-.5h-.7363281z" fill="#98989d"/><rect fill="#ff9f0a" height="1" ry=".5" width="7" x="4" y="7"/><path d="m10 1 3 3h-3z" fill="url(#a)"/><path d="m7.1308594 6c-.270213-.0030983-.5301781.1032836-.7207032.2949219l-.4101562.4121093v-.015625l-.8652344.8867188-.6347656.6386719-.6347656-.6386719-.8652344-.8867188v.015625l-.4101562-.4121093c-.1585881-.1595152-.3691688-.2421263-.5898438-.2695313v9.9746094h1.3007812l.5644532-.578125.6347656-.638672.6347656.638672.5644532.578125h1.7304687 1.140625 1.7304685l.564453-.578125.634766-.638672.634766.638672.564453.578125h1.300781v-9.9746094c-.220675.0274052-.431256.1100161-.589844.2695313l-.410156.4121093v-.015625l-.865234.8867188-.634766.6386719-.634766-.6386719-.865234-.8867188v.015625l-.4101562-.4121093c-.1905243-.1916383-.4504903-.2980202-.7207032-.2949219-.251906.0034-.4932472.1017544-.6757812.2753906l-.1933594.1835938-.1933594-.1835938c-.182534-.1736362-.4238752-.2719906-.6757812-.2753906zm.8691406 5.287109.2109375.212891-.2109375.212891-.2109375-.212891z" fill="#fff" fill-opacity=".784314"/><path d="m1.8808594 7-1.8808594 1.7832031 2.6328125 2.7031249-2.6328125 2.660156 1.8808594 1.853516 2.6289062-2.779297 2.6367188 2.779297.8613281-.859375.8730469.859375 2.6289066-2.779297 2.636718 2.779297 1.853516-1.849609-2.605469-2.652344 2.507813-2.7773439-1.808594-1.7207031-2.580078 2.6464844-2.6328126-2.6464844-.8945313.8496094-.8925781-.8496094-2.5800781 2.6464844zm6.0761718 2.7675781 1.6757813 1.7187499-1.6308594 1.648438-1.6074219-1.636719z" fill="#d70015"/></svg>

<?xml version="1.0" encoding="UTF-8" standalone="no"?>
<svg
   xmlns:dc="http://purl.org/dc/elements/1.1/"
   xmlns:cc="http://creativecommons.org/ns#"
   xmlns:rdf="http://www.w3.org/1999/02/22-rdf-syntax-ns#"
   xmlns:svg="http://www.w3.org/2000/svg"
   xmlns="http://www.w3.org/2000/svg"
   xmlns:sodipodi="http://sodipodi.sourceforge.net/DTD/sodipodi-0.dtd"
   xmlns:inkscape="http://www.inkscape.org/namespaces/inkscape"
   viewBox="0 0 16 16"
   version="1.1"
   id="svg14"
   sodipodi:docname="sc_rejectalltrackedchanges.svg"
   inkscape:export-filename="/home/rizmut/Dokumen/Rizmut/Github/libreoffice-style-sukapura/images_sukapura/cmd/sc_rejecttrackedchange.png"
   inkscape:export-xdpi="96"
   inkscape:export-ydpi="96"
   inkscape:version="0.92.3 (unknown)">
  <metadata
     id="metadata20">
    <rdf:RDF>
      <cc:Work
         rdf:about="">
        <dc:format>image/svg+xml</dc:format>
        <dc:type
           rdf:resource="http://purl.org/dc/dcmitype/StillImage" />
        <dc:title></dc:title>
      </cc:Work>
    </rdf:RDF>
  </metadata>
  <defs
     id="defs18">
    <linearGradient
       id="a"
       gradientUnits="userSpaceOnUse"
       x1="10"
       x2="11.500001"
       y1="4"
       y2="2.4999993">
      <stop
         offset="0"
         stop-color="#fff"
         id="stop976" />
      <stop
         offset=".77967989"
         stop-color="#f1f1f1"
         id="stop978" />
      <stop
         offset="1"
         stop-color="#d5d5d5"
         id="stop980" />
    </linearGradient>
    <radialGradient
       id="b"
       cx="10.994179"
       cy="4.4284401"
       gradientTransform="matrix(1.4,4e-8,-1e-8,1.2,-4.39185,-2.314129)"
       gradientUnits="userSpaceOnUse"
       r="5">
      <stop
         offset="0"
         stop-color="#d7d7d7"
         id="stop983" />
      <stop
         offset=".49894297"
         stop-color="#f7f7f7"
         id="stop985" />
      <stop
         offset="1"
         stop-color="#fff"
         id="stop987" />
    </radialGradient>
  </defs>
  <sodipodi:namedview
     pagecolor="#ffffff"
     bordercolor="#666666"
     borderopacity="1"
     objecttolerance="10"
     gridtolerance="10"
     guidetolerance="10"
     inkscape:pageopacity="0"
     inkscape:pageshadow="2"
     inkscape:window-width="1366"
     inkscape:window-height="699"
     id="namedview16"
     showgrid="true"
     inkscape:zoom="20.85965"
     inkscape:cx="10.018356"
     inkscape:cy="4.8648415"
     inkscape:window-x="0"
     inkscape:window-y="0"
     inkscape:window-maximized="1"
     inkscape:current-layer="svg14"
     inkscape:snap-smooth-nodes="true">
    <inkscape:grid
       type="xygrid"
       id="grid831"
       spacingx="0.5"
       spacingy="0.5"
       empspacing="2" />
  </sodipodi:namedview>
  <path
     style="fill:url(#b)"
     d="M 3,1 V 15 H 13 V 5.6367188 3.7050781 L 10.304688,1 Z M 13,13.496094 11.505859,15 H 13 Z"
     id="path990"
     inkscape:connector-curvature="0"
     sodipodi:nodetypes="ccccccccccc" />
  <path
     style="fill:#98989d;fill-opacity:1"
     d="M 3 0 C 2.446 0 2 0.446 2 1 L 2 15 C 2 15.554 2.446 16 3 16 L 5 16 L 5.234375 16 L 10.496094 16 L 12 16 L 13 16 C 13.554 16 14 15.554 14 15 L 14 12.488281 L 14 5.59375 L 14 4.5 L 14 3.6367188 L 10.363281 0 L 9.5 0 L 3 0 z M 3 1 L 9 1 L 9 4.5 C 9 4.777 9.223 5 9.5 5 L 13 5 L 13 5.6367188 L 13 13.5 L 13 15 L 12 15 L 11.505859 15 L 5.2246094 15 L 5 15 L 3 15 L 3 1 z M 10 1 L 13 4 L 10 4 L 10 1 z M 4.5 4 C 4.223 4 4 4.223 4 4.5 C 4 4.777 4.223 5 4.5 5 L 7.5 5 C 7.777 5 8 4.777 8 4.5 C 8 4.223 7.777 4 7.5 4 L 4.5 4 z M 4.5 10 C 4.223 10 4 10.223 4 10.5 C 4 10.777 4.223 11 4.5 11 L 7.1777344 11 L 7.9355469 10.267578 C 7.8514923 10.1103 7.6914669 10 7.5 10 L 4.5 10 z M 4.5 13 C 4.223 13 4 13.223 4 13.5 C 4 13.777 4.223 14 4.5 14 L 5.4941406 14 L 6.5 14 C 6.777 14 7 13.777 7 13.5 C 7 13.223 6.777 13 6.5 13 L 5.7636719 13 L 4.5 13 z "
     id="path4" />
  <rect
     fill="#d65532"
     height="1"
     ry=".5"
     width="7"
     x="4"
     y="7"
     id="rect6"
     style="fill:#ff9f0a;fill-opacity:1" />
  <path
     inkscape:connector-curvature="0"
     style="fill:url(#a)"
     d="m 10,1 3,3 h -3 z"
     id="path994" />
  <path
     style="opacity:1;fill:#ffffff;fill-opacity:0.78431374;stroke:none;stroke-width:1;stroke-linecap:round;stroke-linejoin:round;stroke-miterlimit:4;stroke-dasharray:none;stroke-opacity:0"
     d="M 7.1308594 6 C 6.8606464 5.9969017 6.6006813 6.1032836 6.4101562 6.2949219 L 6 6.7070312 L 6 6.6914062 L 5.1347656 7.578125 L 4.5 8.2167969 L 3.8652344 7.578125 L 3 6.6914062 L 3 6.7070312 L 2.5898438 6.2949219 C 2.4312557 6.1354067 2.220675 6.0527956 2 6.0253906 L 2 16 L 3.3007812 16 L 3.8652344 15.421875 L 4.5 14.783203 L 5.1347656 15.421875 L 5.6992188 16 L 7.4296875 16 L 8.5703125 16 L 10.300781 16 L 10.865234 15.421875 L 11.5 14.783203 L 12.134766 15.421875 L 12.699219 16 L 14 16 L 14 6.0253906 C 13.779325 6.0527958 13.568744 6.1354067 13.410156 6.2949219 L 13 6.7070312 L 13 6.6914062 L 12.134766 7.578125 L 11.5 8.2167969 L 10.865234 7.578125 L 10 6.6914062 L 10 6.7070312 L 9.5898438 6.2949219 C 9.3993195 6.1032836 9.1393535 5.9969017 8.8691406 6 C 8.6172346 6.0034 8.3758934 6.1017544 8.1933594 6.2753906 L 8 6.4589844 L 7.8066406 6.2753906 C 7.6241066 6.1017544 7.3827654 6.0034 7.1308594 6 z M 8 11.287109 L 8.2109375 11.5 L 8 11.712891 L 7.7890625 11.5 L 8 11.287109 z "
     id="rect1453" />
  <path
     inkscape:connector-curvature="0"
     style="fill:#d70015;fill-opacity:1"
     d="M 1.8808594,7 0,8.7832031 2.6328125,11.486328 0,14.146484 1.8808594,16 4.5097656,13.220703 7.1464844,16 8.0078125,15.140625 8.8808594,16 11.509766,13.220703 14.146484,16 16,14.150391 13.394531,11.498047 15.902344,8.7207031 14.09375,7 11.513672,9.6464844 8.8808594,7 7.9863281,7.8496094 7.09375,7 4.5136719,9.6464844 Z M 7.9570312,9.7675781 9.6328125,11.486328 8.0019531,13.134766 6.3945312,11.498047 Z"
     id="path8" />
</svg>
